packages/debug/src/browser/style/debug-dark.svg

<svg fill="#f6f6f6" height="28" viewBox="0 0 28 28" width="28" xmlns="http://www.w3.org/2000/svg" xmlns:xlink="http://www.w3.org/1999/xlink"><clipPath id="a"><path d="m0 0h28v28h-28z"/></clipPath><g clip-path="url(#a)"><path d="m15.1673 18.0687v4.956c0 .539.105 1.4753-.4358 1.4753h-1.8987v-1.1673h1.1672v-3.7205l-.2012-.21c-.7384.6781-1.698 1.0647-2.7002 1.0878-1.0022.0232-1.97866-.3186-2.7476-.9618-1.351-1.3545-1.21274-3.1955.25375-5.5282h-3.93749v1.1672h-1.16725v-1.8987c0-.5408.93625-.4358 1.47525-.4358h4.788zm-3.5-12.23595h-1.1673v-1.1655h2.275c.5373 0 1.225.25725 1.225.79625v3.9025l.8593 1.0202c.0677-.54641.3313-1.04976.742-1.41662.4106-.36687.9403-.57235 1.491-.57833.1375-.0118.2761.00367.4077.0455v-2.604h1.1673v3.0555c.0357.10329.0945.19711.1718.2744.0773.0773.1711.13606.2744.17185h3.0538v1.1655h-2.6058c.0315 0 .049.175.049.35-.0047.5534-.2094 1.0865-.5764 1.5008s-.8715.6818-1.4203.7532l1.0202.896h3.9043c.539 0 .7962.6807.7962 1.225v2.275h-1.1672v-1.1673h-2.94l-7.56-7.34995zm2.3327-5.83275c-2.7689 0-5.47569.821086-7.77798 2.35943-2.30229 1.53833-4.0967 3.72483-5.15633 6.283-1.05962407 2.55817-1.336871 5.37307-.796678 8.08887.540193 2.7157 1.873568 5.2103 3.831498 7.1682 1.95794 1.9579 4.4525 3.2913 7.16819 3.8315 2.7158.5402 5.5307.2629 8.0889-.7967 2.5581-1.0596 4.7446-2.854 6.283-5.1563 1.5383-2.3023 2.3594-5.0091 2.3594-7.778 0-3.713-1.475-7.27399-4.1005-9.8995-2.6255-2.6255-6.1865-4.1005-9.8995-4.1005zm11.6673 14c.0019 2.6908-.9309 5.2988-2.639 7.378l-16.4063-16.40625c1.70836-1.39906 3.7789-2.2842 5.9707-2.5524s4.4147.09156 6.41 1.03741c1.9953.94586 3.6809 2.43891 4.8608 4.30541 1.1798 1.8665 1.8054 4.02973 1.8038 6.23783zm-23.33454 0c-.0021-2.6909.93075-5.29889 2.639-7.378l16.40624 16.408c-1.7087 1.3984-3.7793 2.283-5.971 2.5507-2.1917.2678-4.4144-.0923-6.40946-1.0382-1.9951-.946-3.68061-2.4389-4.86046-4.3052-1.17986-1.8664-1.80556-4.0293-1.80432-6.2373z" fill="#fff"/></g></svg>

<!--Copyright (c) Microsoft Corporation. All rights reserved.-->
<!--Copyright (C) 2019 TypeFox and others.-->
<!--Licensed under the MIT License. See License.txt in the project root for license information.-->
<svg width="28" height="28" viewBox="0 0 28 28" fill="#F6F6F6" xmlns="http://www.w3.org/2000/svg"><g clip-path="url(#clip0)"><path d="M15.1673 18.0687V23.0247C15.1673 23.5637 15.2723 24.5 14.7315 24.5H12.8328V23.3327H14V19.6122L13.7988 19.4022C13.0604 20.0803 12.1008 20.4669 11.0986 20.49C10.0964 20.5132 9.11994 20.1714 8.351 19.5282C7 18.1737 7.13826 16.3327 8.60475 14H4.66726V15.1672H3.50001V13.2685C3.50001 12.7277 4.43626 12.8327 4.97526 12.8327H9.76326L15.1673 18.0687ZM11.6673 5.83275H10.5V4.66725H12.775C13.3123 4.66725 14 4.9245 14 5.4635V9.366L14.8593 10.3862C14.927 9.83979 15.1906 9.33644 15.6013 8.96958C16.0119 8.60271 16.5416 8.39723 17.0923 8.39125C17.2298 8.37945 17.3684 8.39492 17.5 8.43675V5.83275H18.6673V8.88825C18.703 8.99154 18.7618 9.08536 18.8391 9.16265C18.9164 9.23995 19.0102 9.29871 19.1135 9.3345H22.1673V10.5H19.5615C19.593 10.5 19.6105 10.675 19.6105 10.85C19.6058 11.4034 19.4011 11.9365 19.0341 12.3508C18.6671 12.7651 18.1626 13.0326 17.6138 13.104L18.634 14H22.5383C23.0773 14 23.3345 14.6807 23.3345 15.225V17.5H22.1673V16.3327H19.2273L11.6673 8.98275V5.83275ZM14 0C11.2311 0 8.52431 0.821086 6.22202 2.35943C3.91973 3.89776 2.12532 6.08426 1.06569 8.64243C0.00606593 11.2006 -0.271181 14.0155 0.269012 16.7313C0.809205 19.447 2.14258 21.9416 4.10051 23.8995C6.05845 25.8574 8.55301 27.1908 11.2687 27.731C13.9845 28.2712 16.7994 27.9939 19.3576 26.9343C21.9157 25.8747 24.1022 24.0803 25.6406 21.778C27.1789 19.4757 28 16.7689 28 14C28 10.287 26.525 6.72601 23.8995 4.1005C21.274 1.475 17.713 0 14 0V0ZM25.6673 14C25.6692 16.6908 24.7364 19.2988 23.0283 21.378L6.622 4.97175C8.33036 3.57269 10.4009 2.68755 12.5927 2.41935C14.7845 2.15115 17.0074 2.51091 19.0027 3.45676C20.998 4.40262 22.6836 5.89567 23.8635 7.76217C25.0433 9.62867 25.6689 11.7919 25.6673 14ZM2.33276 14C2.33066 11.3091 3.26351 8.70111 4.97176 6.622L21.378 23.03C19.6693 24.4284 17.5987 25.313 15.407 25.5807C13.2153 25.8485 10.9926 25.4884 8.99754 24.5425C7.00244 23.5965 5.31693 22.1036 4.13708 20.2373C2.95722 18.3709 2.33152 16.208 2.33276 14Z" fill="white"/></g><defs><clipPath id="clip0"><rect width="28" height="28" fill="#F6F6F6"/></clipPath></defs></svg>
